X:161
T:Throw The House Out Of The Window. (p)1657.PLFD.162
M:6/4
L:1/4
Q:3/4=70
S:Playford, Dancing Master,Supplement to 3rd Ed.,1657
O:England
H:1657.
Z:Chris Partington.
K:F
FcdcAF|d2cd2G|A/B/cdcAF|fgad2c:|
|:f>ga/g/fdc|fgadf2|cfdc>BA|BcAG2c|
cAccAc|cAc|f2c|cAccAc|cAcd2c:|
